X: 1460
T: The Ladies Of Leinster
M:C|
L:1/8
N:"collected by Dunphy"
B:O'Neill's 1460
Z:"Transcribed by Bob Safranek, rjs@gsp.org"
K:G
(dc) | BGGB d2 (cB) | ADDE FGAc  | BGGB d2 (cB) | cdeg fdcA  |
       BGGB d2 (cB) | ADDE FGAc  | BGGB d2 (cB) | cdef g2    ||
 d2  | gfdB  GBdB   | Aaag fedc  | Bdgf   edcB  | cdef g2 dB |
       G2 gf edcB   | ADDE F2 GA | BGGB   cAAg  | fdef g2    |]


